icons/svg/shuffle-variant.svg

﻿<?xml version="1.0" encoding="utf-8"?>
<!DOCTYPE svg PUBLIC "-//W3C//DTD SVG 1.1//EN" "http://www.w3.org/Graphics/SVG/1.1/DTD/svg11.dtd">
<svg xmlns="http://www.w3.org/2000/svg" xmlns:xlink="http://www.w3.org/1999/xlink" version="1.1" baseProfile="full" width="24" height="24" viewBox="0 0 24.00 24.00" enable-background="new 0 0 24.00 24.00" xml:space="preserve">
	<path fill="#000000" fill-opacity="1" stroke-linejoin="round" d="M 17,3L 22.25,7.50002L 17,12L 22.25,16.5L 17,21L 17,18L 14.2574,18L 11.4393,15.182L 13.5607,13.0607L 15.5,15L 17,15L 17,12L 17,9L 15.5,9L 6.49999,18L 2,18L 2,15L 5.25736,15L 14.2574,6L 17,6L 17,3 Z M 2,6.00001L 6.5,6.00001L 9.31802,8.81803L 7.1967,10.9393L 5.25737,9.00001L 2,9.00001L 2,6.00001 Z "/>
</svg>

<svg xmlns="http://www.w3.org/2000/svg" version="1.1" baseProfile="full" width="24" height="24" viewBox="0 0 24.00 24.00" xml:space="preserve"><path fill="#000" fill-opacity="1" stroke-linejoin="round" d="M17 3l5.25 4.5L17 12l5.25 4.5L17 21v-3h-2.743l-2.818-2.818 2.12-2.12L15.5 15H17V9h-1.5l-9 9H2v-3h3.257l9-9H17V3zM2 6h4.5l2.818 2.818-2.12 2.12L5.257 9H2V6z"/></svg>
